X:1
T:Lake St. Clair. 87.87.77.77
T:Will Lamartine Thompson, 1904
T:Lake St. Clair. 87.87.77.77
T:Public Domain
C:Will Lamartine Thompson, 1904
Z:Public Domain
%%score ( 1 2 ) ( 3 4 )
L:1/8
M:4/4
K:F
V:1 treble 
V:2 treble 
V:3 bass 
V:4 bass 
V:1
 c3 A G2 F2 | A2 F2 D2 C2 | [CF]3 [CG] [FA]2 [Ac]2 | [Ge]2 [Fd]2 [Ec]2 z2 | %4
 [Fc]3 [Fc] [Fc]2 [Fc]2 | [Ec]3 [Ec] [^Dc]2 [Dc]2 | [Ec]2 [EG]2 [DF]2 [CE]2 | [CE]2 [=B,D]2 C4 | %8
 [A,F]2 [B,F]2 [=B,F]2 [CF]2 | [DF]2 [CF]2 (ED C2) | [A,F]2 [B,F]2 [=B,F]2 [CF]2 | %11
 [DF]2 [CF]2 (ED C2) | [CF]2 [FA]2 [^Fd]3 [Fc] | [Gc]2 [GB]2 ([ce]2 [Bd]2) | %14
 [Ac]2 [Ff]2 [Fc]3 [FA] | [FA]2 [EG]2 F4 |] %16
V:2
 c3 A G2 F2 | A2 F2 D2 C2 | x8 | x8 | x8 | x8 | x8 | x4 C4 | x8 | x4 B,2 C2 | x8 | x4 B,4 | x8 | %13
 x8 | x8 | x4 F4 |] %16
V:3
 C3 A, G,2 F,2 | A,2 F,2 D,2 C,2 | [F,A,]3 [F,B,] [F,C]2 [F,F]2 | [G,C]2 [G,=B,]2 [C,C]2 z2 | %4
 [A,C]3 [A,C] [_A,C]2 [A,C]2 | [G,C]3 [G,C] [^F,C]2 [F,C]2 | [G,C]2 [G,C]2 [G,=B,]2 G,2 | %7
 [G,,G,]2 [G,,F,]2 [C,E,]4 | F,2 G,2 ^G,2 A,2 | B,2 A,2 (G,2 E,2) | F,2 G,2 ^G,2 A,2 | %11
 B,2 A,2 (G,2 E,2) | [F,A,]2 [F,C]2 [D,C]3 [D,D] | [G,B,]2 [G,D]2 ([B,,B,]2 [B,,F,]2) | %14
 [C,F,]2 [C,A,]2 [C,A,]3 [C,C] | [C,C]2 [C,B,]2 [F,A,]4 |] %16
V:4
 C3 A, G,2 F,2 | A,2 F,2 D,2 C,2 | x8 | x8 | x8 | x8 | x6 G,2 | x8 | F,2 ^G,2 G,2 A,2 | %9
 B,2 A,2 G,2 E,2 | F,2 ^G,2 G,2 A,2 | B,2 A,2 G,2 E,2 | x8 | x8 | x8 | x8 |] %16

